X:310
T:Lady Amelia Stuarts Waltz
A:Wyresdale, Lancashire
B:H.S.J. Jackson, 1823
L:1/8
M:3/8
O:England
Z:Richard Robinson 
%%TranscriptionNotes:Some guesswork here owing to imperfect legibility
%%TUNEURL: http://www.leeds.ac.uk/music/Info/RRTuneBk/gettune/00000e1c.html
%%ID:00000e1c
K:E
B |\
eef | gge | aaf | bbg | eef | gge | ccd | e2 ::
B | \
aff | gBB | fcf | dcB | aa/g/a/b/ | gee | ccd | e2 ::
